packages/foundations/assets/icons/functional/images/business & payment/sepa_32.svg

<svg width="32" height="32" viewBox="0 0 32 32" fill="none" xmlns="http://www.w3.org/2000/svg">
<g clip-path="url(#clip0_184_83)">
<path fill-rule="evenodd" clip-rule="evenodd" d="M6.387 21C7.093 21 7.771 21.181 8.332 21.49C8.723 21.706 8.877 22.22 8.676 22.638C8.475 23.056 7.995 23.221 7.604 23.006C7.22964 22.806 6.81143 22.7022 6.387 22.704C5.979 22.704 5.84 22.846 5.84 23.189C5.84 23.591 6.047 23.885 6.747 24.434L7.099 24.701C8.478 25.726 9 26.34 9 27.56C9 28.99 7.934 30 6.499 30C5.74034 29.9968 4.99945 29.77 4.369 29.348C3.999 29.096 3.889 28.57 4.124 28.172C4.21931 28.001 4.3763 27.8729 4.56291 27.8138C4.74951 27.7547 4.95164 27.769 5.128 27.854L5.223 27.91C5.569 28.145 6.04 28.296 6.499 28.296C7.095 28.296 7.408 27.999 7.408 27.56C7.408 27.257 7.282 27.015 6.895 26.664L6.656 26.46L6.361 26.229L6.17 26.085C4.776 25.049 4.248 24.428 4.248 23.189C4.248 21.885 5.118 21 6.387 21ZM18.602 21C20.15 21 21 21.974 21 23.776C21 25.51 20.229 26.449 18.786 26.521L18.602 26.526H17.592V29.148C17.592 29.582 17.288 29.941 16.896 29.993L16.796 30C16.39 30 16.056 29.675 16.006 29.255L16 29.148V21.852C16 21.418 16.304 21.059 16.696 21.007L16.796 21H18.602ZM14.065 21C14.505 21 14.861 21.381 14.861 21.852C14.861 22.286 14.557 22.645 14.165 22.697L14.065 22.704H11.59V24.474H13.47C13.91 24.474 14.266 24.856 14.266 25.326C14.266 25.761 13.962 26.119 13.569 26.172L13.469 26.178H11.59V28.295H14.203C14.609 28.295 14.943 28.621 14.993 29.041L14.999 29.148C14.999 29.582 14.695 29.941 14.303 29.993L14.203 30H10.795C10.389 30 10.055 29.675 10.005 29.255L10 29.148V21.852C10 21.418 10.304 21.059 10.696 21.007L10.796 21H14.065ZM25.43 21.377L25.492 21.482L25.54 21.599L27.959 28.895C28.108 29.344 27.84 29.822 27.361 29.961C26.919 30.091 26.451 29.886 26.265 29.501L26.225 29.401L25.577 27.446H23.517L22.764 29.433C22.61 29.84 22.161 30.068 21.723 29.982L21.604 29.951C21.171 29.806 20.927 29.385 21.019 28.974L21.053 28.862L23.817 21.567C24.079 20.877 25.044 20.821 25.43 21.377ZM24.615 24.547L24.162 25.742H25.012L24.615 24.546V24.547ZM17.592 22.704V24.821H18.602C19.265 24.821 19.408 24.661 19.408 23.776C19.408 22.942 19.264 22.728 18.711 22.706L18.602 22.704H17.592ZM26 1.99997C27.656 1.99997 29 3.37497 29 4.99997V15.985C29 17.641 27.625 18.985 26 18.985H6C4.344 18.985 3 17.61 3 15.985V4.99997C3 3.34397 4.344 1.99997 6 1.99997H26ZM26 3.99997H6C5.73478 3.99997 5.48043 4.10533 5.29289 4.29286C5.10536 4.4804 5 4.73475 5 4.99997V16C5 16.2652 5.10536 16.5195 5.29289 16.7071C5.48043 16.8946 5.73478 17 6 17H26C26.2652 17 26.5196 16.8946 26.7071 16.7071C26.8946 16.5195 27 16.2652 27 16V4.99997C27 4.73475 26.8946 4.4804 26.7071 4.29286C26.5196 4.10533 26.2652 3.99997 26 3.99997ZM18 13C18.2652 13 18.5196 13.1053 18.7071 13.2929C18.8946 13.4804 19 13.7348 19 14C19 14.2652 18.8946 14.5195 18.7071 14.7071C18.5196 14.8946 18.2652 15 18 15H8C7.73478 15 7.48043 14.8946 7.29289 14.7071C7.10536 14.5195 7 14.2652 7 14C7 13.7348 7.10536 13.4804 7.29289 13.2929C7.48043 13.1053 7.73478 13 8 13H18ZM24 5.99997C24.2652 5.99997 24.5196 6.10533 24.7071 6.29286C24.8946 6.4804 25 6.73475 25 6.99997V7.99997C25 8.26519 24.8946 8.51954 24.7071 8.70708C24.5196 8.89461 24.2652 8.99997 24 8.99997H23C22.7348 8.99997 22.4804 8.89461 22.2929 8.70708C22.1054 8.51954 22 8.26519 22 7.99997V6.99997C22 6.73475 22.1054 6.4804 22.2929 6.29286C22.4804 6.10533 22.7348 5.99997 23 5.99997H24Z" fill="#1A1C1F"/>
</g>
<defs>
<clipPath id="clip0_184_83">
<rect width="32" height="32" fill="white"/>
</clipPath>
</defs>
</svg>

<svg xmlns="http://www.w3.org/2000/svg" width="32" height="32" fill="none"><g clip-path="url(#a)"><path fill="#1A1C1F" fill-rule="evenodd" d="M6.387 21c.706 0 1.384.181 1.945.49.391.216.545.73.344 1.148s-.681.583-1.072.368a2.56 2.56 0 0 0-1.217-.302c-.408 0-.547.142-.547.485 0 .402.207.696.907 1.245l.352.267C8.478 25.726 9 26.34 9 27.56 9 28.99 7.934 30 6.499 30a3.86 3.86 0 0 1-2.13-.652c-.37-.252-.48-.778-.245-1.176a.77.77 0 0 1 1.004-.318l.095.056c.346.235.817.386 1.276.386.596 0 .909-.297.909-.736 0-.303-.126-.545-.513-.896l-.239-.204-.295-.231-.191-.144c-1.394-1.036-1.922-1.657-1.922-2.896 0-1.304.87-2.189 2.139-2.189m12.215 0C20.15 21 21 21.974 21 23.776c0 1.734-.771 2.673-2.214 2.745l-.184.005h-1.01v2.622c0 .434-.304.793-.696.845l-.1.007c-.406 0-.74-.325-.79-.745L16 29.148v-7.296c0-.434.304-.793.696-.845l.1-.007zm-4.537 0c.44 0 .796.381.796.852 0 .434-.304.793-.696.845l-.1.007H11.59v1.77h1.88c.44 0 .796.382.796.852 0 .435-.304.793-.697.846l-.1.006H11.59v2.117h2.613c.406 0 .74.326.79.746l.006.107c0 .434-.304.793-.696.845l-.1.007h-3.408c-.406 0-.74-.325-.79-.745L10 29.148v-7.296c0-.434.304-.793.696-.845l.1-.007zm11.365.377.062.105.048.117 2.419 7.296c.149.449-.119.927-.598 1.066-.442.13-.91-.075-1.096-.46l-.04-.1-.648-1.955h-2.06l-.753 1.987c-.154.407-.603.635-1.041.549l-.119-.031c-.433-.145-.677-.566-.585-.977l.034-.112 2.764-7.295c.262-.69 1.227-.746 1.613-.19m-.815 3.17-.453 1.195h.85l-.397-1.196zm-7.023-1.843v2.117h1.01c.663 0 .806-.16.806-1.045 0-.834-.144-1.048-.697-1.07l-.109-.002zM26 2c1.656 0 3 1.375 3 3v10.985c0 1.656-1.375 3-3 3H6c-1.656 0-3-1.375-3-3V5c0-1.656 1.344-3 3-3zm0 2H6a1 1 0 0 0-1 1v11a1 1 0 0 0 1 1h20a1 1 0 0 0 1-1V5a1 1 0 0 0-1-1m-8 9a1 1 0 1 1 0 2H8a1 1 0 0 1 0-2zm6-7a1 1 0 0 1 1 1v1a1 1 0 0 1-1 1h-1a1 1 0 0 1-1-1V7a1 1 0 0 1 1-1z" clip-rule="evenodd"/></g><defs><clipPath id="a"><path fill="#fff" d="M0 0h32v32H0z"/></clipPath></defs></svg>
